svgs/thin/bowling-ball-pin.svg

<svg xmlns="http://www.w3.org/2000/svg" viewBox="0 0 576 512"><!-- Font Awesome Pro 6.0.0-alpha2 by @fontawesome - https://fontawesome.com License - https://fontawesome.com/license (Commercial License) --><path d="M208 96C93.133 96 0 189.098 0 304S93.133 512 208 512S416 418.902 416 304S322.867 96 208 96ZM208 496C102.131 496 16 409.867 16 304S102.131 112 208 112S400 198.133 400 304S313.869 496 208 496ZM520 176.039C520 144.047 544 120.047 544 72.055C544 24.059 512 0.062 480.006 0H479.883C447.918 0 416 24.117 416 72.055C416 120.047 440 144.047 440 176.039C440 190.547 436.883 205.059 432.432 219.566C435.537 227.812 438.176 236.266 440.369 244.914C447.895 225.016 453.936 204.758 455.221 184.039H504.779C506.795 216.516 520.014 247.984 533.342 278.438C547.051 309.773 560 339.367 560 368.016C560 416.617 540.193 455.008 524.279 485.852L523.482 487.398C520.746 492.703 515.311 496 509.301 496H450.789C444.793 496 439.367 492.719 435.992 486.211C427.645 470.117 418.291 451.91 411.186 431.328C407.723 436.84 404.035 442.18 400.148 447.375C407.186 465.277 415.355 481.172 422.422 494.797C427.932 505.422 438.82 512 450.789 512H509.301C521.297 512 532.205 505.391 537.703 494.727C553.748 463.617 576 421.375 576 368.016C576 304.023 520 240.031 520 176.039ZM504.621 168.039H455.379C453.979 154.047 449.414 141.383 444.77 129.156C438.492 112.629 432 95.539 432 72.055C432 33.328 456.049 16 479.883 16H479.975C503.879 16.047 528 33.395 528 72.055C528 95.539 521.508 112.629 515.23 129.156C510.586 141.383 506.021 154.047 504.621 168.039ZM122.672 184C103.547 184 88 199.531 88 218.656S103.547 253.344 122.672 253.344C141.781 253.344 157.328 237.781 157.328 218.656S141.781 184 122.672 184ZM122.672 237.344C112.375 237.344 104 228.969 104 218.656C104 208.375 112.375 200 122.672 200C132.953 200 141.328 208.375 141.328 218.656C141.328 228.969 132.953 237.344 122.672 237.344ZM197.328 226.656C178.219 226.656 162.672 242.219 162.672 261.344S178.219 296 197.328 296C216.453 296 232 280.469 232 261.344S216.453 226.656 197.328 226.656ZM197.328 280C187.047 280 178.672 271.625 178.672 261.344C178.672 251.031 187.047 242.656 197.328 242.656C207.625 242.656 216 251.031 216 261.344C216 271.625 207.625 280 197.328 280ZM197.328 138.656C178.219 138.656 162.672 154.219 162.672 173.344S178.219 208 197.328 208C216.453 208 232 192.469 232 173.344S216.453 138.656 197.328 138.656ZM197.328 192C187.047 192 178.672 183.625 178.672 173.344C178.672 163.031 187.047 154.656 197.328 154.656C207.625 154.656 216 163.031 216 173.344C216 183.625 207.625 192 197.328 192Z"/></svg>

<svg xmlns="http://www.w3.org/2000/svg" viewBox="0 0 576 512"><!--! Font Awesome Pro 6.3.0 by @fontawesome - https://fontawesome.com License - https://fontawesome.com/license (Commercial License) Copyright 2023 Fonticons, Inc. --><path d="M208 96C93.13 96 0 189.1 0 304S93.13 512 208 512S416 418.9 416 304S322.9 96 208 96zM208 496c-105.9 0-192-86.13-192-192s86.13-192 192-192s192 86.13 192 192S313.9 496 208 496zM520 176C520 144 544 120 544 72.05c0-47.1-32.08-71.99-64.08-72.05C447.1-.0001 416 24.12 416 72.05c0 47.99 24 71.99 24 103.1c0 14.51-3.117 29.02-7.568 43.53c3.105 8.246 5.744 16.7 7.938 25.35c7.525-19.9 13.57-40.16 14.85-60.88h49.56c2.016 32.48 15.23 63.95 28.56 94.4C547.1 309.8 560 339.4 560 368c0 48.6-19.81 86.99-35.72 117.8l-.7969 1.547C520.7 492.7 515.3 496 509.3 496h-58.51c-5.996 0-11.42-3.281-14.8-9.789c-8.348-16.09-17.7-34.3-24.81-54.88c-3.463 5.512-7.153 10.85-11.04 16.04c7.037 17.9 15.21 33.8 22.28 47.43C427.9 505.4 438.8 512 450.8 512h58.51c11.1 0 22.9-6.609 28.4-17.27C553.7 463.6 576 421.4 576 368C576 304 520 240 520 176zM504.6 168h-49.24c-1.4-13.99-5.965-26.66-10.61-38.88C438.5 112.6 432 95.54 432 72.05C432 33.33 456 16 479.9 16C503.8 16.05 528 33.39 528 72.05c0 23.48-6.492 40.57-12.77 57.1C510.6 141.4 506 154 504.6 168zM122.7 184C103.5 184 88 199.5 88 218.7s15.55 34.69 34.67 34.69c19.11 0 34.66-15.56 34.66-34.69S141.8 184 122.7 184zM122.7 237.3C112.4 237.3 104 228.1 104 218.7C104 208.4 112.4 200 122.7 200c10.28 0 18.66 8.375 18.66 18.66C141.3 228.1 132.1 237.3 122.7 237.3zM197.3 226.7c-19.11 0-34.66 15.56-34.66 34.69S178.2 296 197.3 296C216.5 296 232 280.5 232 261.3S216.5 226.7 197.3 226.7zM197.3 280c-10.28 0-18.66-8.375-18.66-18.66c0-10.31 8.375-18.69 18.66-18.69C207.6 242.7 216 251 216 261.3C216 271.6 207.6 280 197.3 280zM197.3 138.7c-19.11 0-34.66 15.56-34.66 34.69S178.2 208 197.3 208C216.5 208 232 192.5 232 173.3S216.5 138.7 197.3 138.7zM197.3 192C187 192 178.7 183.6 178.7 173.3c0-10.31 8.375-18.69 18.66-18.69C207.6 154.7 216 163 216 173.3C216 183.6 207.6 192 197.3 192z"/></svg>
